src/standard/graph-exponential-down.svg

<svg xmlns="http://www.w3.org/2000/svg" viewBox="0 0 36 36">
  <path d="M17.38 8v10a.62.62 0 0 0 1.24 0V8a.62.62 0 0 0-1.24 0Zm-7 0v7a.62.62 0 0 0 1.24 0V8a.62.62 0 0 0-1.24 0Zm14 0v12a.62.62 0 0 0 1.24 0V8a.62.62 0 0 0-1.24 0ZM31 26.83a.62.62 0 0 0-.62.62v2.93H5.62V18.51a.62.62 0 0 0-1.24 0V31a.62.62 0 0 0 .62.62h26a.62.62 0 0 0 .62-.62v-3.55a.62.62 0 0 0-.62-.62Z"/>
  <path d="M5 9.62A.62.62 0 0 0 5.62 9V5.62h24.76v14.74a.62.62 0 0 0 1.24 0V5a.62.62 0 0 0-.62-.62H5a.62.62 0 0 0-.62.62v4a.62.62 0 0 0 .62.62Zm27 13.65C14.5 22.93 7.27 16 4.52 11.93a.62.62 0 0 0-1 .69C6.36 16.91 13.93 24.18 32 24.52a.63.63 0 0 0 0-1.25Z"/>
</svg>

<svg id="edb479b5-9a2d-4953-91f9-975f48bbded0" data-name="Icon" xmlns="http://www.w3.org/2000/svg" viewBox="0 0 36 36">
  <title>Exponential graph down icon - Black</title>
<desc>decrease, slump, finance, chart, plot, lose, loss, fast, reduce, diagrams and graphs</desc>
<metadata><?xpacket begin="﻿" id="W5M0MpCehiHzreSzNTczkc9d"?>
<x:xmpmeta xmlns:x="adobe:ns:meta/" x:xmptk="Adobe XMP Core 8.0-c001 1.000000, 0000/00/00-00:00:00        ">
   <rdf:RDF xmlns:rdf="http://www.w3.org/1999/02/22-rdf-syntax-ns#">
      <rdf:Description rdf:about=""
            xmlns:xmp="http://ns.adobe.com/xap/1.0/"
            xmlns:dc="http://purl.org/dc/elements/1.1/"
            xmlns:cq="http://www.day.com/jcr/cq/1.0"
            xmlns:tiff="http://ns.adobe.com/tiff/1.0/">
         <xmp:rhcc-effective-on>2023-12-08T17:34:53.600Z</xmp:rhcc-effective-on>
         <xmp:rhcc-metadata-complete-moderator>pending</xmp:rhcc-metadata-complete-moderator>
         <xmp:rhcc-translation-id>TRA9538ace1-c5c6-47b1-b100-7162c1d007b7</xmp:rhcc-translation-id>
         <xmp:brand-content-type>Icon</xmp:brand-content-type>
         <xmp:CreateDate>2023-12-08T17:34:53.600Z</xmp:CreateDate>
         <xmp:rhcc-effective-on-set-on-upload>true</xmp:rhcc-effective-on-set-on-upload>
         <xmp:rhcc-metadata-complete-uploader>pending</xmp:rhcc-metadata-complete-uploader>
         <xmp:rhcc-file-last-modified>2023-12-08T17:35:20.110Z</xmp:rhcc-file-last-modified>
         <xmp:rhcc-audience>rhcc-audience:internal</xmp:rhcc-audience>
         <xmp:rhcc-rights-restricted>no</xmp:rhcc-rights-restricted>
         <xmp:brand-content-subtype>Icon</xmp:brand-content-subtype>
         <xmp:rhcc-derivative-id>DER9538ace1-c5c6-47b1-b100-7162c1d007b7</xmp:rhcc-derivative-id>
         <xmp:brand-logo-color>Black</xmp:brand-logo-color>
         <xmp:rhcc-notify-portal-subscribers-on-change>yes</xmp:rhcc-notify-portal-subscribers-on-change>
         <dc:format>image/svg+xml</dc:format>
         <dc:modified>2024-02-09T20:34:20.469Z</dc:modified>
         <dc:title>
            <rdf:Alt>
               <rdf:li xml:lang="x-default">Exponential graph down icon - Black</rdf:li>
            </rdf:Alt>
         </dc:title>
         <dc:description>
            <rdf:Alt>
               <rdf:li xml:lang="x-default">decrease, slump, finance, chart, plot, lose, loss, fast, reduce, diagrams and graphs</rdf:li>
            </rdf:Alt>
         </dc:description>
         <cq:lastReplicationAction_scene7>Activate</cq:lastReplicationAction_scene7>
         <cq:lastReplicationAction_publish>Activate</cq:lastReplicationAction_publish>
         <cq:lastReplicated_publish>2024-02-09T22:21:50.087Z</cq:lastReplicated_publish>
         <cq:lastReplicatedBy>workflow-process-service</cq:lastReplicatedBy>
         <cq:lastReplicationAction>Activate</cq:lastReplicationAction>
         <cq:lastReplicatedBy_publish>workflow-process-service</cq:lastReplicatedBy_publish>
         <cq:isDelivered>true</cq:isDelivered>
         <cq:lastReplicated>2024-02-09T22:21:50.087Z</cq:lastReplicated>
         <cq:lastReplicatedBy_scene7>workflow-process-service</cq:lastReplicatedBy_scene7>
         <cq:lastReplicated_scene7>2024-02-09T22:21:50.087Z</cq:lastReplicated_scene7>
         <tiff:ImageLength>36</tiff:ImageLength>
         <tiff:ImageWidth>36</tiff:ImageWidth>
      </rdf:Description>
   </rdf:RDF>
</x:xmpmeta>
                                                                                                    
                                                                                                    
                                                                                                    
                                                                                                    
                                                                                                    
                                                                                                    
                                                                                                    
                                                                                                    
                                                                                                    
                                                                                                    
                                 
<?xpacket end="w"?></metadata>
<g>
    <path d="M17.38,8V18a.62.62,0,0,0,1.24,0V8A.62.62,0,0,0,17.38,8Z"/>
    <path d="M10.38,8v7a.62.62,0,0,0,1.24,0V8A.62.62,0,0,0,10.38,8Z"/>
    <path d="M24.38,8V20a.62.62,0,0,0,1.24,0V8A.62.62,0,0,0,24.38,8Z"/>
    <path d="M31,26.83a.62.62,0,0,0-.62.62v2.93H5.62V18.51a.62.62,0,0,0-1.24,0V31a.62.62,0,0,0,.62.62H31a.62.62,0,0,0,.62-.62V27.45A.62.62,0,0,0,31,26.83Z"/>
    <path d="M5,9.62A.62.62,0,0,0,5.62,9V5.62H30.38V20.36a.62.62,0,0,0,1.24,0V5A.62.62,0,0,0,31,4.38H5A.62.62,0,0,0,4.38,5V9A.62.62,0,0,0,5,9.62Z"/>
    <path d="M32,23.27C14.5,22.93,7.27,16,4.52,11.93a.62.62,0,0,0-1,.69C6.36,16.91,13.93,24.18,32,24.52A.63.63,0,0,0,32,23.27Z"/>
  </g>
</svg>
